src/server/app/webroot/images/styleguide/phone.svg

<svg xmlns="http://www.w3.org/2000/svg" viewBox="0 0 30 30"><path d="M24 4v-.5C24 1.6 22.4 0 20.5 0h-11C7.6 0 6 1.6 6 3.5V4h18zm-3.5-2c.3 0 .5.2.5.5s-.2.5-.5.5-.5-.2-.5-.5.2-.5.5-.5zm-6 0h1c.3 0 .5.2.5.5s-.2.5-.5.5h-1c-.3 0-.5-.2-.5-.5s.2-.5.5-.5zM6 5h18v20H6zM6 26v.5C6 28.4 7.6 30 9.5 30h11c1.9 0 3.5-1.6 3.5-3.5V26H6zm6.5 2h-3c-.3 0-.5-.2-.5-.5s.2-.5.5-.5h3c.3 0 .5.2.5.5s-.2.5-.5.5zm8 0h-3c-.3 0-.5-.2-.5-.5s.2-.5.5-.5h3c.3 0 .5.2.5.5s-.2.5-.5.5z"/></svg>

<?xml version="1.0" encoding="UTF-8" standalone="no"?>
<svg
   xmlns:dc="http://purl.org/dc/elements/1.1/"
   xmlns:cc="http://creativecommons.org/ns#"
   xmlns:rdf="http://www.w3.org/1999/02/22-rdf-syntax-ns#"
   xmlns:svg="http://www.w3.org/2000/svg"
   xmlns="http://www.w3.org/2000/svg"
   xml:space="preserve"
   style="enable-background:new 0 0 30 30;"
   viewBox="0 0 30 30"
   y="0px"
   x="0px"
   id="Layer_1"
   version="1.1"><metadata
     id="metadata14"><rdf:RDF><cc:Work
         rdf:about=""><dc:format>image/svg+xml</dc:format><dc:type
           rdf:resource="http://purl.org/dc/dcmitype/StillImage" /><dc:title></dc:title></cc:Work></rdf:RDF></metadata><defs
     id="defs12" /><g
     id="XMLID_10_"><g
       id="XMLID_11_"><path
         d="M24,4V3.5C24,1.6,22.4,0,20.5,0h-11C7.6,0,6,1.6,6,3.5V4H24z M20.5,2L20.5,2C20.8,2,21,2.2,21,2.5    S20.8,3,20.5,3S20,2.8,20,2.5S20.2,2,20.5,2z M14.5,2h1C15.8,2,16,2.2,16,2.5S15.8,3,15.5,3h-1C14.2,3,14,2.8,14,2.5    S14.2,2,14.5,2z"
         id="XMLID_300_" /></g><g
       id="XMLID_15_"><rect
         height="20"
         width="18"
         y="5"
         x="6"
         id="XMLID_289_" /></g><g
       id="XMLID_16_"><path
         d="M6,26v0.5C6,28.4,7.6,30,9.5,30h11c1.9,0,3.5-1.6,3.5-3.5V26H6z M12.5,28h-3C9.2,28,9,27.8,9,27.5    S9.2,27,9.5,27h3c0.3,0,0.5,0.2,0.5,0.5S12.8,28,12.5,28z M20.5,28h-3c-0.3,0-0.5-0.2-0.5-0.5s0.2-0.5,0.5-0.5h3    c0.3,0,0.5,0.2,0.5,0.5S20.8,28,20.5,28z"
         id="XMLID_293_" /></g></g></svg>
